.gitbook/assets/simplify-curved-room.svg

<?xml version="1.0" encoding="UTF-8"?>
<svg xmlns="http://www.w3.org/2000/svg" xmlns:xlink="http://www.w3.org/1999/xlink" width="30px" height="30px" viewBox="0 0 30 30" version="1.1">
<g id="surface1">
<path style="fill:none;stroke-width:1;stroke-linecap:round;stroke-linejoin:round;stroke:rgb(0%,0%,0%);stroke-opacity:1;stroke-miterlimit:1.5;" d="M 5.109375 9.967969 L 4.467187 6.733594 L 3.675 3.792187 " transform="matrix(1.666667,0,0,1.666667,0,0)"/>
<path style="fill:none;stroke-width:1;stroke-linecap:round;stroke-linejoin:round;stroke:rgb(0%,0%,0%);stroke-opacity:1;stroke-miterlimit:1.5;" d="M 14.325 3.719531 L 14.325 14.207812 " transform="matrix(1.666667,0,0,1.666667,0,0)"/>
<path style="fill:none;stroke-width:1;stroke-linecap:round;stroke-linejoin:round;stroke:rgb(0%,0%,0%);stroke-opacity:1;stroke-miterlimit:1.5;" d="M 5.109375 9.967969 L 3.675 14.280469 " transform="matrix(1.666667,0,0,1.666667,0,0)"/>
<path style=" stroke:none;fill-rule:nonzero;fill:rgb(0%,0%,0%);fill-opacity:1;" d="M 17.828125 14.359375 L 16.492188 13.023438 C 16.382812 12.917969 16.324219 12.769531 16.324219 12.613281 C 16.324219 12.296875 16.585938 12.03125 16.90625 12.03125 C 17.058594 12.03125 17.207031 12.09375 17.316406 12.203125 L 19.640625 14.527344 C 19.75 14.636719 19.8125 14.785156 19.8125 14.941406 C 19.8125 15.09375 19.75 15.242188 19.640625 15.351562 L 17.316406 17.675781 C 17.207031 17.785156 17.058594 17.847656 16.90625 17.847656 C 16.585938 17.847656 16.324219 17.582031 16.324219 17.265625 C 16.324219 17.109375 16.382812 16.960938 16.492188 16.851562 L 17.828125 15.523438 L 13.417969 15.523438 C 13.097656 15.523438 12.835938 15.257812 12.835938 14.941406 C 12.835938 14.621094 13.097656 14.359375 13.417969 14.359375 Z M 17.828125 14.359375 "/>
<path style="fill-rule:evenodd;fill:rgb(100%,100%,100%);fill-opacity:1;stroke-width:0.67;stroke-linecap:round;stroke-linejoin:round;stroke:rgb(0%,0%,0%);stroke-opacity:1;stroke-miterlimit:1.5;" d="M 13.321875 3.719531 C 13.321875 3.164062 13.771875 2.714062 14.325 2.714062 C 14.880469 2.714062 15.330469 3.164062 15.330469 3.719531 C 15.330469 4.275 14.880469 4.725 14.325 4.725 C 13.771875 4.725 13.321875 4.275 13.321875 3.719531 Z M 13.321875 3.719531 " transform="matrix(1.666667,0,0,1.666667,0,0)"/>
<path style="fill-rule:evenodd;fill:rgb(100%,100%,100%);fill-opacity:1;stroke-width:0.67;stroke-linecap:round;stroke-linejoin:round;stroke:rgb(0%,0%,0%);stroke-opacity:1;stroke-miterlimit:1.5;" d="M 2.669531 3.792187 C 2.669531 3.239062 3.119531 2.789062 3.675 2.789062 C 4.228125 2.789062 4.678125 3.239062 4.678125 3.792187 C 4.678125 4.347656 4.228125 4.797656 3.675 4.797656 C 3.119531 4.797656 2.669531 4.347656 2.669531 3.792187 Z M 2.669531 3.792187 " transform="matrix(1.666667,0,0,1.666667,0,0)"/>
<path style="fill-rule:evenodd;fill:rgb(100%,100%,100%);fill-opacity:1;stroke-width:0.67;stroke-linecap:round;stroke-linejoin:round;stroke:rgb(0%,0%,0%);stroke-opacity:1;stroke-miterlimit:1.5;" d="M 13.321875 14.207812 C 13.321875 13.652344 13.771875 13.202344 14.325 13.202344 C 14.880469 13.202344 15.330469 13.652344 15.330469 14.207812 C 15.330469 14.760937 14.880469 15.210938 14.325 15.210938 C 13.771875 15.210938 13.321875 14.760937 13.321875 14.207812 Z M 13.321875 14.207812 " transform="matrix(1.666667,0,0,1.666667,0,0)"/>
<path style="fill-rule:evenodd;fill:rgb(100%,100%,100%);fill-opacity:1;stroke-width:0.67;stroke-linecap:round;stroke-linejoin:round;stroke:rgb(0%,0%,0%);stroke-opacity:1;stroke-miterlimit:1.5;" d="M 2.669531 14.280469 C 2.669531 13.725 3.119531 13.275 3.675 13.275 C 4.228125 13.275 4.678125 13.725 4.678125 14.280469 C 4.678125 14.835938 4.228125 15.285937 3.675 15.285937 C 3.119531 15.285937 2.669531 14.835938 2.669531 14.280469 Z M 2.669531 14.280469 " transform="matrix(1.666667,0,0,1.666667,0,0)"/>
<path style="fill-rule:evenodd;fill:rgb(100%,100%,100%);fill-opacity:1;stroke-width:0.67;stroke-linecap:round;stroke-linejoin:round;stroke:rgb(0%,0%,0%);stroke-opacity:1;stroke-miterlimit:1.5;" d="M 3.464062 6.733594 C 3.464062 6.178125 3.914062 5.728125 4.467187 5.728125 C 5.022656 5.728125 5.472656 6.178125 5.472656 6.733594 C 5.472656 7.289062 5.022656 7.739062 4.467187 7.739062 C 3.914062 7.739062 3.464062 7.289062 3.464062 6.733594 Z M 3.464062 6.733594 " transform="matrix(1.666667,0,0,1.666667,0,0)"/>
<path style="fill-rule:evenodd;fill:rgb(100%,100%,100%);fill-opacity:1;stroke-width:0.67;stroke-linecap:round;stroke-linejoin:round;stroke:rgb(0%,0%,0%);stroke-opacity:1;stroke-miterlimit:1.5;" d="M 4.103906 9.967969 C 4.103906 9.414844 4.553906 8.964844 5.109375 8.964844 C 5.6625 8.964844 6.1125 9.414844 6.1125 9.967969 C 6.1125 10.521094 5.6625 10.971094 5.109375 10.971094 C 4.553906 10.971094 4.103906 10.521094 4.103906 9.967969 Z M 4.103906 9.967969 " transform="matrix(1.666667,0,0,1.666667,0,0)"/>
</g>
</svg>

<?xml version="1.0" encoding="UTF-8" standalone="no"?><!DOCTYPE svg PUBLIC "-//W3C//DTD SVG 1.1//EN" "http://www.w3.org/Graphics/SVG/1.1/DTD/svg11.dtd"><svg width="100%" height="100%" viewBox="0 0 18 18" version="1.1" xmlns="http://www.w3.org/2000/svg" xmlns:xlink="http://www.w3.org/1999/xlink" xml:space="preserve" xmlns:serif="http://www.serif.com/" style="fill-rule:evenodd;clip-rule:evenodd;stroke-linecap:round;stroke-linejoin:round;stroke-miterlimit:1.5;"><g><path d="M5.109,9.968l-0.641,-3.235l-0.794,-2.941" style="fill:none;stroke:#000;stroke-width:1px;"/><path d="M14.326,3.719l-0,10.489" style="fill:none;stroke:#000;stroke-width:1px;"/><path d="M5.109,9.968l-1.435,4.313" style="fill:none;stroke:#000;stroke-width:1px;"/><path id="arrows" d="M10.696,8.615l-0.8,-0.8c-0.066,-0.065 -0.102,-0.154 -0.102,-0.247c-0,-0.191 0.157,-0.349 0.349,-0.349c0.092,0 0.182,0.037 0.247,0.102l1.395,1.396c0.066,0.065 0.102,0.154 0.102,0.247c0,0.092 -0.036,0.181 -0.102,0.246l-1.395,1.396c-0.065,0.065 -0.155,0.102 -0.247,0.102c-0.192,-0 -0.349,-0.158 -0.349,-0.349c-0,-0.093 0.036,-0.182 0.102,-0.247l0.8,-0.799l-2.646,-0c-0.192,-0 -0.349,-0.158 -0.349,-0.349c-0,-0.192 0.157,-0.349 0.349,-0.349l2.646,0Z" style="fill-rule:nonzero;"/><path d="M13.321,3.719c0,-0.554 0.451,-1.004 1.005,-1.004c0.554,-0 1.004,0.45 1.004,1.004c0,0.555 -0.45,1.005 -1.004,1.005c-0.554,-0 -1.005,-0.45 -1.005,-1.005Z" style="fill:#fff;stroke:#000;stroke-width:0.67px;"/><path d="M2.67,3.792c-0,-0.554 0.45,-1.004 1.004,-1.004c0.554,-0 1.005,0.45 1.005,1.004c-0,0.555 -0.451,1.005 -1.005,1.005c-0.554,-0 -1.004,-0.45 -1.004,-1.005Z" style="fill:#fff;stroke:#000;stroke-width:0.67px;"/><path d="M13.321,14.208c0,-0.555 0.451,-1.005 1.005,-1.005c0.554,0 1.004,0.45 1.004,1.005c0,0.554 -0.45,1.004 -1.004,1.004c-0.554,0 -1.005,-0.45 -1.005,-1.004Z" style="fill:#fff;stroke:#000;stroke-width:0.67px;"/><path d="M2.67,14.281c-0,-0.555 0.45,-1.005 1.004,-1.005c0.554,0 1.005,0.45 1.005,1.005c-0,0.554 -0.451,1.004 -1.005,1.004c-0.554,0 -1.004,-0.45 -1.004,-1.004Z" style="fill:#fff;stroke:#000;stroke-width:0.67px;"/><path d="M3.464,6.733c-0,-0.554 0.45,-1.004 1.004,-1.004c0.555,-0 1.005,0.45 1.005,1.004c-0,0.555 -0.45,1.005 -1.005,1.005c-0.554,-0 -1.004,-0.45 -1.004,-1.005Z" style="fill:#fff;stroke:#000;stroke-width:0.67px;"/><path d="M4.104,9.968c0,-0.554 0.45,-1.004 1.005,-1.004c0.554,-0 1.004,0.45 1.004,1.004c0,0.554 -0.45,1.004 -1.004,1.004c-0.555,0 -1.005,-0.45 -1.005,-1.004Z" style="fill:#fff;stroke:#000;stroke-width:0.67px;"/></g></svg>
